src/components/Home/Core/assets/core-app.svg

<svg width="79" height="71" viewBox="0 0 79 71" fill="none" xmlns="http://www.w3.org/2000/svg">
<path d="M56.1166 64.3652H43.0823V59.537C40.8923 58.9682 38.7965 58.1155 36.8288 56.9917L33.4472 60.3733L24.2302 51.1563L27.4951 47.8915C26.2871 45.8961 25.3641 43.7614 24.7375 41.52H20.2383V28.4856H24.5052C25.0715 26.1324 25.9618 23.8872 27.1623 21.7826L24.2289 18.8492L33.4459 9.63225L36.2625 12.4488C38.3922 11.1605 40.6776 10.1961 43.0823 9.57197V5.6416H56.1166V9.57197C58.5213 10.1961 60.8067 11.1605 62.9364 12.4488L65.753 9.63225L74.97 18.8492L72.0366 21.7826C73.2371 23.8859 74.1287 26.1324 74.6937 28.4856H78.9607V41.52H74.4614C73.8361 43.7614 72.9119 45.8949 71.7039 47.8915L74.9687 51.1563L65.7518 60.3733L62.3701 56.9917C60.4011 58.1155 58.3066 58.9682 56.1166 59.537V64.3652Z" fill="#B69538"/>
<path d="M49.5945 51.7358C40.3687 51.7358 32.8633 44.2304 32.8633 35.0046C32.8633 25.7789 40.3687 18.2734 49.5945 18.2734C58.8202 18.2734 66.3256 25.7789 66.3256 35.0046C66.3256 44.2304 58.819 51.7358 49.5945 51.7358Z" fill="white"/>
<path d="M49.5964 40.93C46.3302 40.93 43.6719 38.2729 43.6719 35.0055C43.6719 31.7381 46.329 29.0811 49.5964 29.0811C52.8625 29.0811 55.5208 31.7381 55.5208 35.0055C55.5208 38.2729 52.8625 40.93 49.5964 40.93Z" fill="white"/>
<path d="M56.1166 64.3652H43.0823V59.537C40.8923 58.9682 38.7965 58.1155 36.8288 56.9917L33.4472 60.3733L24.2302 51.1563L27.4951 47.8915C26.2871 45.8961 25.3641 43.7614 24.7375 41.52H20.2383V28.4856H24.5052C25.0715 26.1324 25.9618 23.8872 27.1623 21.7826L24.2289 18.8492L33.4459 9.63225L36.2625 12.4488C38.3922 11.1605 40.6776 10.1961 43.0823 9.57197V5.6416H56.1166V9.57197C58.5213 10.1961 60.8067 11.1605 62.9364 12.4488L65.753 9.63225L74.97 18.8492L72.0366 21.7826C73.2371 23.8859 74.1287 26.1324 74.6937 28.4856H78.9607V41.52H74.4614C73.8361 43.7614 72.9119 45.8949 71.7039 47.8915L74.9687 51.1563L65.7518 60.3733L62.3701 56.9917C60.4011 58.1155 58.3066 58.9682 56.1166 59.537V64.3652ZM46.096 61.3515H53.1029V57.1198L54.3009 56.8686C56.968 56.3098 59.4895 55.2839 61.7962 53.821L62.8159 53.1743L65.753 56.1114L70.7081 51.1563L67.8413 48.2896L68.5332 47.2599C70.0928 44.9405 71.1991 42.3889 71.8219 39.6766L72.0906 38.5063H75.9482V31.4993H72.23L71.9977 30.2738C71.4615 27.4509 70.408 24.7875 68.8659 22.3577L68.2192 21.3381L70.7081 18.8492L65.753 13.8942L63.3345 16.3127L62.3048 15.6208C59.865 13.9796 57.1714 12.8419 54.3009 12.2404L53.1029 11.9892V8.65407H46.096V11.9892L44.8981 12.2404C42.0275 12.8419 39.334 13.9796 36.8941 15.6208L35.8644 16.3127L33.4459 13.8942L28.4909 18.8492L30.9797 21.3381L30.333 22.3577C28.791 24.7875 27.7374 27.4509 27.2012 30.2738L26.9689 31.4993H23.2507V38.5063H27.1083L27.377 39.6766C27.9999 42.3902 29.1062 44.9418 30.6658 47.2599L31.3577 48.2896L28.4909 51.1563L33.4459 56.1114L36.383 53.1743L37.4027 53.821C39.7094 55.2852 42.2309 56.3098 44.8981 56.8686L46.096 57.1198V61.3515Z" fill="#4C4C4C"/>
<path d="M49.5945 51.7358C40.3687 51.7358 32.8633 44.2304 32.8633 35.0046C32.8633 25.7789 40.3687 18.2734 49.5945 18.2734C58.8202 18.2734 66.3256 25.7789 66.3256 35.0046C66.3256 44.2304 58.819 51.7358 49.5945 51.7358ZM49.5945 21.2884C42.0313 21.2884 35.877 27.4414 35.877 35.0059C35.877 42.5703 42.03 48.7233 49.5945 48.7233C57.1576 48.7233 63.3119 42.5703 63.3119 35.0059C63.3119 27.4414 57.1576 21.2884 49.5945 21.2884Z" fill="#4C4C4C"/>
<path d="M49.5964 40.93C46.3302 40.93 43.6719 38.2729 43.6719 35.0055C43.6719 31.7381 46.329 29.0811 49.5964 29.0811C52.8625 29.0811 55.5208 31.7381 55.5208 35.0055C55.5208 38.2729 52.8625 40.93 49.5964 40.93ZM49.5964 32.096C47.9916 32.096 46.6856 33.402 46.6856 35.0068C46.6856 36.6116 47.9916 37.9175 49.5964 37.9175C51.2012 37.9175 52.5071 36.6116 52.5071 35.0068C52.5071 33.402 51.2012 32.096 49.5964 32.096Z" fill="#4C4C4C"/>
<path d="M41.5758 70.8213H9.1268C4.23453 70.8213 0.253906 66.8406 0.253906 61.9484V9.69418C0.253906 4.8019 4.23453 0.821289 9.1268 0.821289H41.5771C46.4693 0.821289 50.45 4.8019 50.45 9.69418V61.9484C50.45 66.8406 46.4693 70.8213 41.5758 70.8213Z" fill="white"/>
<path d="M41.5783 67.9326H9.12928C5.82925 67.9326 3.14453 65.2479 3.14453 61.9478V9.69372C3.14453 6.3937 5.82925 3.70898 9.12928 3.70898H41.5795C44.8795 3.70898 47.5643 6.3937 47.5643 9.69372V61.9478C47.5643 65.2479 44.8795 67.9326 41.5783 67.9326Z" fill="white"/>
<path d="M35.9116 36.7566H32.1445V33.3662H35.9116V36.7566ZM27.1216 36.7566H23.3545V33.3662H27.1216V36.7566ZM18.3316 36.7566H14.793V33.3662H18.3316V36.7566Z" fill="#4C4C4C"/>
<path d="M44.7909 5.64258H5.30859V12.7976H44.7909V5.64258Z" fill="#B69538"/>
<path d="M44.7909 56.1016H5.30859V65.822H44.7909V56.1016Z" fill="#B69538"/>
<path d="M41.5783 67.9326H9.12928C5.82925 67.9326 3.14453 65.2479 3.14453 61.9478V9.69372C3.14453 6.3937 5.82925 3.70898 9.12928 3.70898H41.5795C44.8795 3.70898 47.5643 6.3937 47.5643 9.69372V61.9478C47.5643 65.2479 44.8795 67.9326 41.5783 67.9326ZM9.12928 6.7227C7.49056 6.7227 6.15825 8.05501 6.15825 9.69372V61.9478C6.15825 63.5865 7.49056 64.9189 9.12928 64.9189H41.5795C43.2182 64.9189 44.5505 63.5865 44.5505 61.9478V9.69372C44.5505 8.05501 43.217 6.7227 41.5795 6.7227H9.12928Z" fill="#4C4C4C"/>
<path d="M46.0545 54.3955H4.64844V57.4093H46.0545V54.3955Z" fill="#4C4C4C"/>
<path d="M46.0545 11.292H4.64844V14.3058H46.0545V11.292Z" fill="#4C4C4C"/>
<path d="M29.4838 59.6787H21.2148V62.6925H29.4838V59.6787Z" fill="#4C4C4C"/>
<path d="M27.8919 7.56641H22.8125V10.4545H27.8919V7.56641Z" fill="#4C4C4C"/>
</svg>

<svg width="79" height="71" fill="none" xmlns="http://www.w3.org/2000/svg"><path d="M56.117 64.365H43.082v-4.828a25.528 25.528 0 0 1-6.253-2.545l-3.382 3.381-9.217-9.217 3.265-3.264a25.57 25.57 0 0 1-2.758-6.372h-4.499V28.486h4.267a25.57 25.57 0 0 1 2.657-6.703l-2.933-2.934 9.217-9.217 2.817 2.817a25.54 25.54 0 0 1 6.82-2.877v-3.93h13.034v3.93a25.54 25.54 0 0 1 6.82 2.877l2.816-2.817 9.217 9.217-2.933 2.934a25.507 25.507 0 0 1 2.657 6.703h4.267V41.52h-4.5a25.54 25.54 0 0 1-2.757 6.371l3.265 3.265-9.217 9.217-3.382-3.381a25.549 25.549 0 0 1-6.253 2.545v4.828z" fill="#B69538"/><path d="M49.594 51.736c-9.225 0-16.73-7.506-16.73-16.731 0-9.226 7.505-16.732 16.73-16.732 9.226 0 16.732 7.506 16.732 16.732 0 9.225-7.507 16.73-16.731 16.73z" fill="#fff"/><path d="M49.596 40.93a5.931 5.931 0 0 1-5.924-5.925 5.93 5.93 0 0 1 5.924-5.924 5.931 5.931 0 0 1 5.925 5.924 5.931 5.931 0 0 1-5.925 5.925z" fill="#fff"/><path d="M56.117 64.365H43.082v-4.828a25.528 25.528 0 0 1-6.253-2.545l-3.382 3.381-9.217-9.217 3.265-3.264a25.57 25.57 0 0 1-2.758-6.372h-4.499V28.486h4.267a25.57 25.57 0 0 1 2.657-6.703l-2.933-2.934 9.217-9.217 2.817 2.817a25.54 25.54 0 0 1 6.82-2.877v-3.93h13.034v3.93a25.54 25.54 0 0 1 6.82 2.877l2.816-2.817 9.217 9.217-2.933 2.934a25.507 25.507 0 0 1 2.657 6.703h4.267V41.52h-4.5a25.54 25.54 0 0 1-2.757 6.371l3.265 3.265-9.217 9.217-3.382-3.381a25.549 25.549 0 0 1-6.253 2.545v4.828zm-10.021-3.013h7.007V57.12l1.198-.251a22.604 22.604 0 0 0 7.495-3.048l1.02-.647 2.937 2.937 4.955-4.955-2.867-2.866.692-1.03a22.61 22.61 0 0 0 3.289-7.583l.269-1.17h3.857v-7.008H72.23l-.232-1.225a22.571 22.571 0 0 0-3.132-7.916l-.647-1.02 2.49-2.489-4.956-4.955-2.419 2.419-1.03-.692a22.571 22.571 0 0 0-8.003-3.38l-1.198-.252V8.654h-7.007v3.335l-1.198.251a22.572 22.572 0 0 0-8.004 3.38l-1.03.693-2.418-2.419-4.955 4.955 2.489 2.49-.647 1.019a22.573 22.573 0 0 0-3.132 7.916l-.232 1.225H23.25v7.007h3.857l.269 1.17a22.59 22.59 0 0 0 3.289 7.584l.692 1.03-2.867 2.866 4.955 4.955 2.937-2.937 1.02.647a22.577 22.577 0 0 0 7.495 3.048l1.198.25v4.233z" fill="#4C4C4C"/><path d="M49.594 51.736c-9.225 0-16.73-7.506-16.73-16.731 0-9.226 7.505-16.732 16.73-16.732 9.226 0 16.732 7.506 16.732 16.732 0 9.225-7.507 16.73-16.731 16.73zm0-30.448c-7.563 0-13.717 6.153-13.717 13.718 0 7.564 6.153 13.717 13.717 13.717 7.564 0 13.718-6.153 13.718-13.717 0-7.565-6.154-13.718-13.718-13.718z" fill="#4C4C4C"/><path d="M49.596 40.93a5.931 5.931 0 0 1-5.924-5.925 5.93 5.93 0 0 1 5.924-5.924 5.931 5.931 0 0 1 5.925 5.924 5.931 5.931 0 0 1-5.925 5.925zm0-8.834a2.914 2.914 0 0 0-2.91 2.91 2.914 2.914 0 0 0 2.91 2.911 2.914 2.914 0 0 0 2.911-2.91 2.914 2.914 0 0 0-2.91-2.911z" fill="#4C4C4C"/><path d="M41.576 70.821H9.126c-4.891 0-8.872-3.98-8.872-8.873V9.694c0-4.892 3.98-8.873 8.873-8.873h32.45c4.892 0 8.873 3.98 8.873 8.873v52.254c0 4.893-3.98 8.873-8.874 8.873z" fill="#fff"/><path d="M41.578 67.933H9.13a5.991 5.991 0 0 1-5.984-5.985V9.694c0-3.3 2.684-5.985 5.984-5.985h32.45c3.3 0 5.985 2.685 5.985 5.985v52.254c0 3.3-2.684 5.985-5.986 5.985z" fill="#fff"/><path d="M35.912 36.757h-3.767v-3.39h3.767v3.39zm-8.79 0h-3.767v-3.39h3.767v3.39zm-8.79 0h-3.539v-3.39h3.539v3.39z" fill="#4C4C4C"/><path d="M44.79 5.643H5.31v7.155H44.79V5.643zm0 50.459H5.31v9.72H44.79v-9.72z" fill="#B69538"/><path d="M41.578 67.933H9.13a5.991 5.991 0 0 1-5.984-5.985V9.694c0-3.3 2.684-5.985 5.984-5.985h32.45c3.3 0 5.985 2.685 5.985 5.985v52.254c0 3.3-2.684 5.985-5.986 5.985zM9.13 6.723a2.974 2.974 0 0 0-2.97 2.97v52.255a2.974 2.974 0 0 0 2.97 2.97h32.45a2.974 2.974 0 0 0 2.971-2.97V9.694a2.975 2.975 0 0 0-2.97-2.971H9.13z" fill="#4C4C4C"/><path d="M46.054 54.395H4.648v3.014h41.406v-3.014zm0-43.103H4.648v3.014h41.406v-3.014zm-16.57 48.387h-8.27v3.014h8.27v-3.014zM27.892 7.566h-5.08v2.888h5.08V7.566z" fill="#4C4C4C"/></svg>
